X:2797
L:1/8
M:2/2
K:A
 (3efg | a2 ff e2 c2 | fecB A2 (3efg | a2 ff e2 c2 | [Af]3 [Ag] [Af]2 (3efg | a2 ff e2 c2 | 
 fecB A2 AB | cBAG E2 F2 | A3 B A2 :: A2 | c4 c3 A | B2 A4 A2 | B c2 B cB A2 | F6 A2 | B4 B3 B | 
 c2 B4 AB | cBAF E2 F2 | A6 :|

